public/icons/svg/lock.svg

<svg fill="none" height="41" viewBox="0 0 36 41" width="36" xmlns="http://www.w3.org/2000/svg"><path d="m33 14h-6v-4.5c0-2.38695-.9482-4.67613-2.636-6.36396-1.6879-1.68783-3.9771-2.63604-6.364-2.63604s-4.6761.94821-6.364 2.63604c-1.68779 1.68783-2.636 3.97701-2.636 6.36396v4.5h-6c-.79565 0-1.55871.3161-2.12132.8787s-.87868 1.3257-.87868 2.1213v21c0 .7957.31607 1.5587.87868 2.1213s1.32567.8787 2.12132.8787h30c.7957 0 1.5587-.3161 2.1213-.8787s.8787-1.3256.8787-2.1213v-21c0-.7956-.3161-1.5587-.8787-2.1213s-1.3256-.8787-2.1213-.8787zm-21-4.5c0-1.5913.6321-3.11742 1.7574-4.24264 1.1252-1.12522 2.6513-1.75736 4.2426-1.75736s3.1174.63214 4.2426 1.75736c1.1253 1.12522 1.7574 2.65134 1.7574 4.24264v4.5h-12zm21 28.5h-30v-21h30zm-12.75-10.5c0 .445-.132.88-.3792 1.25s-.5986.6584-1.0098.8287c-.4111.1703-.8635.2149-1.3.1281-.4364-.0868-.8373-.3011-1.152-.6158s-.529-.7156-.6158-1.152c-.0868-.4365-.0422-.8889.1281-1.3.1703-.4112.4587-.7626.8287-1.0098s.805-.3792 1.25-.3792c.5967 0 1.169.2371 1.591.659.4219.422.659.9943.659 1.591z"/></svg>

<svg width="36" height="41" viewBox="0 0 36 41" fill="none" xmlns="http://www.w3.org/2000/svg">
<path d="M33 14H27V9.5C27 7.11305 26.0518 4.82387 24.364 3.13604C22.6761 1.44821 20.3869 0.5 18 0.5C15.6131 0.5 13.3239 1.44821 11.636 3.13604C9.94821 4.82387 9 7.11305 9 9.5V14H3C2.20435 14 1.44129 14.3161 0.87868 14.8787C0.31607 15.4413 0 16.2044 0 17V38C0 38.7957 0.31607 39.5587 0.87868 40.1213C1.44129 40.6839 2.20435 41 3 41H33C33.7957 41 34.5587 40.6839 35.1213 40.1213C35.6839 39.5587 36 38.7957 36 38V17C36 16.2044 35.6839 15.4413 35.1213 14.8787C34.5587 14.3161 33.7957 14 33 14ZM12 9.5C12 7.9087 12.6321 6.38258 13.7574 5.25736C14.8826 4.13214 16.4087 3.5 18 3.5C19.5913 3.5 21.1174 4.13214 22.2426 5.25736C23.3679 6.38258 24 7.9087 24 9.5V14H12V9.5ZM33 38H3V17H33V38ZM20.25 27.5C20.25 27.945 20.118 28.38 19.8708 28.75C19.6236 29.12 19.2722 29.4084 18.861 29.5787C18.4499 29.749 17.9975 29.7936 17.561 29.7068C17.1246 29.62 16.7237 29.4057 16.409 29.091C16.0943 28.7763 15.88 28.3754 15.7932 27.939C15.7064 27.5025 15.751 27.0501 15.9213 26.639C16.0916 26.2278 16.38 25.8764 16.75 25.6292C17.12 25.382 17.555 25.25 18 25.25C18.5967 25.25 19.169 25.4871 19.591 25.909C20.0129 26.331 20.25 26.9033 20.25 27.5Z" />
</svg>
